X: 1
T:The Ballachulish Walkabout  "CYMRU"
M:C|
L:1/8
Q:80
C:P/M J.D. Burgess
S:Hornpipe
K:HP
|: f|
{e}{f}{e}{f}{e}{f}ec/2e/2{g}A/2e/2{g}c/2f/2|
{e}{f}{e}{f}{e}{f}ec/2e/2{g}Aa/2f/2|
{e}{f}{e}{f}{e}{f}ec/2e/2{g}A/2e/2{g}c/2f/2|  !
{d}{c}{d}{c}{d}{c}dc/2d/2{g}Ba/2f/2| |
{e}{f}{e}{f}{e}{f}ec/2e/2{g}A/2e/2{g}c/2f/2|
{e}{f}{e}{f}{e}{f}ec/2e/2{g}A{g}B/2c/2|  !
{gde}d/2B/2{g}G/2{d}B/2{Gdc}d/2f/2{g}e/2d/2|
{gef}e{g}A{GAG}A:| |:
f|  !
{e}{f}{e}{f}{e}{f}ec/2f/2{e}{f}{e}{f}{e}{f}ec/2a/2|
f/2a/2d/2a/2((3f/2a/2f/2){g}d/2f/2|
{e}{f}{e}{f}{e}{f}ec/2f/2{e}{f}{e}{f}{e}{f}ec/2e/2|  !
{g}d/2e/2{g}B/2e/2{g}((3d/2e/2d/2){g}B/2f/2| |
{e}{f}{e}{f}{e}{f}ec/2f/2{e}{f}{e}{f}{e}{f}ec/2a/2|
f/2a/2d/2a/2((3f/2a/2f/2){g}d/2f/2|  !
{e}{f}{e}{f}{e}{f}ec/2e/2{g}d/2B/2{g}G/2{d}B/2|
{gcd}c{e}A{GAG}A:|
